assets/bold/book-bookmark-bold.svg

<svg id="Flat" xmlns="http://www.w3.org/2000/svg" viewBox="0 0 256 256">
  <path d="M208.00244,20h-136a36.04062,36.04062,0,0,0-36,36V224a12.0006,12.0006,0,0,0,12,12h144a12,12,0,0,0,0-24h-132v-4a12.01312,12.01312,0,0,1,12-12h136a12.0006,12.0006,0,0,0,12-12V32A12.0006,12.0006,0,0,0,208.00244,20Zm-88,24h40v60.00391l-12.80859-9.6045a12.00294,12.00294,0,0,0-14.40039.001l-12.791,9.5957Zm76,128h-124a35.828,35.828,0,0,0-12,2.05664V56a12.01312,12.01312,0,0,1,12-12h24v84a12.00049,12.00049,0,0,0,19.20117,9.59961L139.99658,119l24.80664,18.60059A12.00029,12.00029,0,0,0,184.00244,128V44h12Z"/>
</svg>

<svg xmlns="http://www.w3.org/2000/svg" viewBox="0 0 256 256"><path d="M208,20H72A36,36,0,0,0,36,56V224a12,12,0,0,0,12,12H192a12,12,0,0,0,0-24H60v-4a12,12,0,0,1,12-12H208a12,12,0,0,0,12-12V32A12,12,0,0,0,208,20ZM120,44h40v60l-12.8-9.6a12,12,0,0,0-14.4,0L120,104Zm76,128H72a34.4,34.4,0,0,0-12,2.1V56A12,12,0,0,1,72,44H96v84a12.1,12.1,0,0,0,6.6,10.7A11.6,11.6,0,0,0,108,140a12,12,0,0,0,7.2-2.4L140,119l24.8,18.6A12,12,0,0,0,184,128V44h12Z"/></svg>
